sources/design/Outline/z.svg

<svg:svg xmlns:cc="http://creativecommons.org/ns#" xmlns:dc="http://purl.org/dc/elements/1.1/" xmlns:inkscape="http://www.inkscape.org/namespaces/inkscape" xmlns:rdf="http://www.w3.org/1999/02/22-rdf-syntax-ns#" xmlns:sodipodi="http://sodipodi.sourceforge.net/DTD/sodipodi-0.dtd" xmlns:svg="http://www.w3.org/2000/svg" xml:space="preserve" width="1000" height="1000" version="1.1" style="clip-rule:evenodd;fill-rule:evenodd;image-rendering:optimizeQuality;shape-rendering:geometricPrecision;text-rendering:geometricPrecision" viewBox="0 0 1000 1000" id="svg10" sodipodi:docname="z.svg" inkscape:version="1.1.1 (3bf5ae0d25, 2021-09-20)"><svg:text text-anchor="middle" x="229.01007" y="151.67783" id="top" inkscape:label="top" style="clip-rule:evenodd;fill-rule:evenodd;image-rendering:optimizeQuality;shape-rendering:geometricPrecision;text-rendering:geometricPrecision">✛</svg:text><svg:metadata id="metadata14"><rdf:RDF><cc:Work rdf:about=""><dc:format>image/svg+xml</dc:format><dc:type rdf:resource="http://purl.org/dc/dcmitype/StillImage" /></cc:Work></rdf:RDF></svg:metadata><sodipodi:namedview pagecolor="#ffffff" bordercolor="#666666" borderopacity="1" objecttolerance="10" gridtolerance="10" guidetolerance="10" inkscape:pageopacity="0" inkscape:pageshadow="2" inkscape:window-width="1920" inkscape:window-height="1009" id="namedview12" showgrid="false" inkscape:zoom="1.2005384" inkscape:cx="223.64966" inkscape:cy="381.4955" inkscape:window-x="0" inkscape:window-y="0" inkscape:window-maximized="1" inkscape:current-layer="svg10" showguides="true" inkscape:guide-bbox="true" inkscape:document-rotation="0" inkscape:pagecheckerboard="0"><sodipodi:guide position="0,1000" orientation="0,1" id="guide16" inkscape:label="" inkscape:locked="true" inkscape:color="rgb(0,0,255)" /><sodipodi:guide position="1763.3122,2036.1693" orientation="1000,0" id="guide18" /><sodipodi:guide position="0,200" orientation="0,1" id="guide20" inkscape:label="base" inkscape:locked="true" inkscape:color="rgb(0,0,255)" /><inkscape:grid type="xygrid" id="grid24" originx="-473.37552" originy="-489.69235" /><sodipodi:guide position="0,0" orientation="0,1" id="guide34" inkscape:label="bottom" inkscape:locked="true" inkscape:color="rgb(0,0,255)" /><sodipodi:guide position="225.05109,1693.3186" orientation="0,1" id="guide44" inkscape:label="" inkscape:locked="false" inkscape:color="rgb(0,0,255)" /><sodipodi:guide position="0,900" orientation="0,1" id="guide46" inkscape:label="" inkscape:locked="true" inkscape:color="rgb(0,0,255)" /><sodipodi:guide position="471.96502,756.81928" orientation="1,0" id="guide841" inkscape:label="width" />    <sodipodi:guide position="535.98217,799.74293" orientation="0,-1" id="guide848" /></sodipodi:namedview>
 <svg:defs id="defs4"><inkscape:path-effect effect="fillet_chamfer" id="path-effect853" is_visible="true" lpeversion="1" satellites_param="F,0,0,1,0,13.925072,0,1 @ F,0,0,1,0,14.606924,0,1 @ F,0,0,1,0,0,0,1 @ F,0,0,1,0,0,0,1 @ F,0,0,1,0,17.45164,0,1 @ F,0,0,1,0,0,0,1 @ F,0,0,1,0,0,0,1 @ F,0,0,1,0,0,0,1 @ F,0,0,1,0,0,0,1 @ F,0,0,1,0,13.045067,0,1 @ F,0,0,1,0,12.620977,0,1 @ F,0,0,1,0,0,0,1 @ F,0,0,1,0,0,0,1 @ F,0,0,1,0,14.205393,0,1 @ F,0,0,1,0,0,0,1 @ F,0,0,1,0,0,0,1 @ F,0,0,1,0,0,0,1 @ F,0,0,1,0,0,0,1 @ F,0,0,1,0,0,0,1" unit="px" method="auto" mode="F" radius="0" chamfer_steps="1" flexible="false" use_knot_distance="true" apply_no_radius="true" apply_with_radius="true" only_selected="true" hide_knots="false" /><inkscape:path-effect effect="fillet_chamfer" id="path-effect852" is_visible="true" lpeversion="1" satellites_param="F,0,0,1,0,39.884281,0,1 @ F,0,0,1,0,32.469826,0,1 @ F,0,0,1,0,0,0,1 @ F,0,0,1,0,0,0,1 @ F,0,0,1,0,0,0,1 @ F,0,0,1,0,34.466899,0,1 @ F,0,0,1,0,0,0,1 @ F,0,0,1,0,0,0,1 @ F,0,0,1,0,0,0,1 @ F,0,0,1,0,25.900481,0,1 @ F,0,0,1,0,25.112246,0,1 @ F,0,0,1,0,0,0,1 @ F,0,0,1,0,0,0,1 @ F,0,0,1,0,58.00848,0,1 @ F,0,0,1,0,0,0,1 @ F,0,0,1,0,0,0,1 @ F,0,0,1,0,0,0,1 @ F,0,0,1,0,0,0,1" unit="px" method="auto" mode="F" radius="0" chamfer_steps="1" flexible="false" use_knot_distance="true" apply_no_radius="true" apply_with_radius="true" only_selected="true" hide_knots="false" /><inkscape:path-effect effect="fillet_chamfer" id="path-effect850" is_visible="true" lpeversion="1" satellites_param="F,0,0,1,0,31.055137,0,1 @ F,0,0,1,0,18.839978,0,1 @ F,0,0,1,0,0,0,1 @ F,0,0,1,0,0,0,1 @ F,0,0,1,0,35.246291,0,1 @ F,0,0,1,0,0,0,1 @ F,0,0,1,0,0,0,1 @ F,0,0,1,0,0,0,1 @ F,0,0,1,0,28.36636,0,1 @ F,0,0,1,0,22.781799,0,1 @ F,0,0,1,0,0,0,1 @ F,0,0,1,0,0,0,1 @ F,0,0,1,0,25.422483,0,1 @ F,0,0,1,0,0,0,1 @ F,0,0,1,0,0,0,1 @ F,0,0,1,0,0,0,1" unit="px" method="auto" mode="F" radius="0" chamfer_steps="1" flexible="false" use_knot_distance="true" apply_no_radius="true" apply_with_radius="true" only_selected="true" hide_knots="false" /><inkscape:path-effect effect="spiro" id="path-effect849" is_visible="true" lpeversion="1" /><inkscape:path-effect effect="spiro" id="path-effect851" is_visible="true" lpeversion="1" />
  <svg:style type="text/css" id="style2">
   
    .fil0 {fill:#EF7F1A;fill-rule:nonzero}
   
  </svg:style>
 <inkscape:path-effect effect="spiro" id="path-effect1214" is_visible="true" lpeversion="1" /><inkscape:path-effect effect="spiro" id="path-effect1195" is_visible="true" lpeversion="1" /><inkscape:path-effect effect="spiro" id="path-effect992" is_visible="true" lpeversion="1" /><inkscape:path-effect effect="spiro" id="path-effect1060" is_visible="true" lpeversion="1" /><inkscape:path-effect effect="spiro" id="path-effect1047" is_visible="true" lpeversion="1" /><inkscape:path-effect effect="spiro" id="path-effect1085" is_visible="true" lpeversion="1" /><inkscape:path-effect effect="spiro" id="path-effect1286" is_visible="true" lpeversion="1" /></svg:defs>
 
<svg:g id="path847"><svg:path style="color:#000000;clip-rule:nonzero;fill:#1a5fb4;fill-rule:nonzero;stroke-linecap:round;stroke-linejoin:round;-inkscape-stroke:none;paint-order:fill stroke markers;shape-rendering:auto" d="M 172.24414,168.81836 C 150.63730999999999,168.56288 128.48494,170.26079000000001 105.99999999999999,175.61523000000003 C 55.861581999999984,187.55492000000004 11.234498999999985,217.58840000000004 -19.015625000000014,259.05664 C -34.08093500000001,279.70885000000004 -30.575980000000015,303.68515 -13.634766000000013,320.46484000000004 L 59.181640999999985,392.58789 C 67.03239099999999,400.36379 81.18745499999999,406.81582000000003 95.31054699999999,403.56836000000004 C 109.43363999999998,400.32090000000005 118.52218999999998,389.46823000000006 122.64844,379.76172 C 131.59632,358.71289 146.65961,339.91556 165.22460999999998,326.76367000000005 C 188.4174,310.33334 218.18678999999997,302.10546000000005 246.52539,304.29297 C 261.3209,305.43506 276.03720999999996,309.50204 289.6543,315.88867000000005 C 254.82847999999998,377.89282000000003 218.07047999999998,438.81268000000006 179.41796999999997,498.50586000000004 C 119.18236999999996,591.53096 54.38496899999997,681.60458 -14.662109000000044,768.2910200000001 C -17.468443000000043,771.8142800000002 -20.277239000000044,775.8289600000002 -22.257812000000044,782.3457000000001 C -24.238386000000045,788.8624500000001 -24.953576000000044,799.8971700000001 -18.968750000000043,809.6543 C -12.983924000000043,819.41143 -2.967033800000042,823.70834 3.662109399999956,824.93555 C 10.291252999999955,826.16276 15.118417999999956,825.54591 19.523436999999955,824.69727 C 58.11060599999996,817.26329 97.40066799999995,813.40114 136.69335999999996,813.1875 C 209.58824999999996,812.79116 284.95449999999994,825.31562 363.78124999999994,828.30664 C 384.87248999999997,829.10693 405.98975999999993,829.18373 427.08593999999994,828.53711 C 450.2972699999999,827.82566 467.14406999999994,812.27114 470.18944999999997,789.55078 L 486.125,670.66992 C 487.40263,661.1380700000001 486.2018,644.14319 470.3418,634.23437 C 454.48184,624.32556 439.24222,630.46518 431.20311999999996,635.5390600000001 C 399.30262999999997,655.6730900000001 364.02729999999997,670.59738 327.37109,679.4335900000001 C 294.73719,687.3002100000001 260.85843,690.1697300000001 227.25585999999998,688.3515600000001 C 261.49995,633.4680800000001 295.46315,578.4098600000001 328.80664,522.9746100000001 C 385.76176000000004,428.2838200000001 441.39695,332.7988100000001 495.68945,236.55664000000007 C 501.26235,226.67779000000007 505.38461,209.87260000000006 495.51367000000005,195.04883000000007 C 485.64273000000003,180.22506000000007 468.89116000000007,177.57616000000007 457.68750000000006,178.73828000000006 C 396.9349000000001,185.03996000000006 335.50151000000005,184.96474000000006 274.76953000000003,178.50391000000005 C 242.75490000000002,175.09810000000004 208.25552000000005,169.24416000000005 172.24414000000002,168.81836000000004 L 172.24414,168.81836 M 171.63476999999997,229.22266000000002 C 201.83306,229.76414000000003 234.32280999999998,234.54042 268.42186999999996,238.16797000000003 C 289.60322999999994,240.42130000000003 310.86249999999995,241.86981000000003 332.14453,242.66992000000002 A 30.003,30.003 0.0 0,0 325.06055,251.25781 C 322.92434,255.26245 320.67766,259.20709 318.52538999999996,263.20312 C 297.54464999999993,252.83063 274.69265999999993,246.28858000000002 251.14257999999995,244.47070000000002 C 208.44946999999996,241.17514000000003 165.48178999999993,253.05181000000002 130.54101999999995,277.80469000000005 C 110.76573999999995,291.81397000000004 94.10371599999995,309.68346 81.28320299999994,330.02930000000003 L 36.484375,285.65625 C 57.970687999999996,260.37142 87.858788,241.61459 119.90039,233.98437 C 136.22235,230.09755 153.51579,228.89777 171.63477,229.22266000000002 L 171.63476999999997,229.22266000000002 M 423.77734,241.63281 C 375.987,325.68734 327.228,409.19164 277.39062,492.04883 C 239.73521,554.65288 201.32078,616.79588 162.51172000000003,678.69141 C 160.54833000000002,678.20367 158.55534000000003,677.83132 156.60156000000003,677.30859 A 30.003,30.003 0.0 0,0 119.03320000000004,709.61133 L 123.83398000000004,752.6875 A 30.003,30.003 0.0 0,0 124.15234000000004,753.53906 C 106.22540000000004,753.9514499999999 88.31577100000004,754.9135399999999 70.47656200000003,756.70508 C 126.5407,683.65927 179.73272,608.40985 229.78125,531.11719 C 268.84886,470.78296 306.00221,409.21078 341.22852,346.55664 A 30.003,30.003 0.0 0,0 374.02344,321.56836000000004 L 381.24609,269.49805000000003 A 30.003,30.003 0.0 0,0 370.99805,243.35156000000003 C 388.60334,243.28256000000005 406.20322,242.69403000000003 423.77734,241.63281000000003 L 423.77734,241.63281 M 420.33788999999996,709.8457000000001 L 412.44336,768.73828 C 396.97943,768.98278 381.51095999999995,768.93601 366.05664,768.34961 C 307.73364000000004,766.13659 247.79097000000002,757.75164 185.81445000000002,754.52539 C 187.74583,751.47475 189.63586000000004,748.3981 191.56445000000002,745.3457 C 241.41779000000002,752.06859 292.44107,749.57121 341.43164,737.76172 C 368.62669,731.20618 395.09042,721.81571 420.33789,709.8457 L 420.33788999999996,709.8457000000001" id="path22185" /></svg:g></svg:svg>

<svg:svg xmlns:cc="http://creativecommons.org/ns#" xmlns:dc="http://purl.org/dc/elements/1.1/" xmlns:inkscape="http://www.inkscape.org/namespaces/inkscape" xmlns:rdf="http://www.w3.org/1999/02/22-rdf-syntax-ns#" xmlns:sodipodi="http://sodipodi.sourceforge.net/DTD/sodipodi-0.dtd" xmlns:svg="http://www.w3.org/2000/svg" xml:space="preserve" width="1000" height="1000" version="1.1" style="clip-rule:evenodd;fill-rule:evenodd;image-rendering:optimizeQuality;shape-rendering:geometricPrecision;text-rendering:geometricPrecision" viewBox="0 0 1000 1000" id="svg10" sodipodi:docname="z.svg" inkscape:version="1.1.1 (3bf5ae0d25, 2021-09-20)"><svg:text text-anchor="middle" x="229.01007" y="151.67783" id="top" inkscape:label="top" style="clip-rule:evenodd;fill-rule:evenodd;image-rendering:optimizeQuality;shape-rendering:geometricPrecision;text-rendering:geometricPrecision">✛</svg:text><svg:metadata id="metadata14"><rdf:RDF><cc:Work rdf:about=""><dc:format>image/svg+xml</dc:format><dc:type rdf:resource="http://purl.org/dc/dcmitype/StillImage" /></cc:Work></rdf:RDF></svg:metadata><sodipodi:namedview pagecolor="#ffffff" bordercolor="#666666" borderopacity="1" objecttolerance="10" gridtolerance="10" guidetolerance="10" inkscape:pageopacity="0" inkscape:pageshadow="2" inkscape:window-width="1920" inkscape:window-height="1009" id="namedview12" showgrid="false" inkscape:zoom="1.2005384" inkscape:cx="223.64966" inkscape:cy="381.4955" inkscape:window-x="0" inkscape:window-y="0" inkscape:window-maximized="1" inkscape:current-layer="svg10" showguides="true" inkscape:guide-bbox="true" inkscape:document-rotation="0" inkscape:pagecheckerboard="0"><sodipodi:guide position="0,1000" orientation="0,1" id="guide16" inkscape:label="" inkscape:locked="true" inkscape:color="rgb(0,0,255)" /><sodipodi:guide position="1763.3122,2036.1693" orientation="1000,0" id="guide18" /><sodipodi:guide position="0,200" orientation="0,1" id="guide20" inkscape:label="base" inkscape:locked="true" inkscape:color="rgb(0,0,255)" /><inkscape:grid type="xygrid" id="grid24" originx="-473.37552" originy="-489.69235" /><sodipodi:guide position="0,0" orientation="0,1" id="guide34" inkscape:label="bottom" inkscape:locked="true" inkscape:color="rgb(0,0,255)" /><sodipodi:guide position="225.05109,1693.3186" orientation="0,1" id="guide44" inkscape:label="" inkscape:locked="false" inkscape:color="rgb(0,0,255)" /><sodipodi:guide position="0,900" orientation="0,1" id="guide46" inkscape:label="" inkscape:locked="true" inkscape:color="rgb(0,0,255)" /><sodipodi:guide position="471.96502,756.81928" orientation="1,0" id="guide841" inkscape:label="width" />    <sodipodi:guide position="535.98217,799.74293" orientation="0,-1" id="guide848" /></sodipodi:namedview>
 <svg:defs id="defs4"><inkscape:path-effect effect="fillet_chamfer" id="path-effect853" is_visible="true" lpeversion="1" satellites_param="F,0,0,1,0,13.925072,0,1 @ F,0,0,1,0,14.606924,0,1 @ F,0,0,1,0,0,0,1 @ F,0,0,1,0,0,0,1 @ F,0,0,1,0,17.45164,0,1 @ F,0,0,1,0,0,0,1 @ F,0,0,1,0,0,0,1 @ F,0,0,1,0,0,0,1 @ F,0,0,1,0,0,0,1 @ F,0,0,1,0,13.045067,0,1 @ F,0,0,1,0,12.620977,0,1 @ F,0,0,1,0,0,0,1 @ F,0,0,1,0,0,0,1 @ F,0,0,1,0,14.205393,0,1 @ F,0,0,1,0,0,0,1 @ F,0,0,1,0,0,0,1 @ F,0,0,1,0,0,0,1 @ F,0,0,1,0,0,0,1 @ F,0,0,1,0,0,0,1" unit="px" method="auto" mode="F" radius="0" chamfer_steps="1" flexible="false" use_knot_distance="true" apply_no_radius="true" apply_with_radius="true" only_selected="true" hide_knots="false" /><inkscape:path-effect effect="fillet_chamfer" id="path-effect852" is_visible="true" lpeversion="1" satellites_param="F,0,0,1,0,39.884281,0,1 @ F,0,0,1,0,32.469826,0,1 @ F,0,0,1,0,0,0,1 @ F,0,0,1,0,0,0,1 @ F,0,0,1,0,0,0,1 @ F,0,0,1,0,34.466899,0,1 @ F,0,0,1,0,0,0,1 @ F,0,0,1,0,0,0,1 @ F,0,0,1,0,0,0,1 @ F,0,0,1,0,25.900481,0,1 @ F,0,0,1,0,25.112246,0,1 @ F,0,0,1,0,0,0,1 @ F,0,0,1,0,0,0,1 @ F,0,0,1,0,58.00848,0,1 @ F,0,0,1,0,0,0,1 @ F,0,0,1,0,0,0,1 @ F,0,0,1,0,0,0,1 @ F,0,0,1,0,0,0,1" unit="px" method="auto" mode="F" radius="0" chamfer_steps="1" flexible="false" use_knot_distance="true" apply_no_radius="true" apply_with_radius="true" only_selected="true" hide_knots="false" /><inkscape:path-effect effect="fillet_chamfer" id="path-effect850" is_visible="true" lpeversion="1" satellites_param="F,0,0,1,0,31.055137,0,1 @ F,0,0,1,0,18.839978,0,1 @ F,0,0,1,0,0,0,1 @ F,0,0,1,0,0,0,1 @ F,0,0,1,0,35.246291,0,1 @ F,0,0,1,0,0,0,1 @ F,0,0,1,0,0,0,1 @ F,0,0,1,0,0,0,1 @ F,0,0,1,0,28.36636,0,1 @ F,0,0,1,0,22.781799,0,1 @ F,0,0,1,0,0,0,1 @ F,0,0,1,0,0,0,1 @ F,0,0,1,0,25.422483,0,1 @ F,0,0,1,0,0,0,1 @ F,0,0,1,0,0,0,1 @ F,0,0,1,0,0,0,1" unit="px" method="auto" mode="F" radius="0" chamfer_steps="1" flexible="false" use_knot_distance="true" apply_no_radius="true" apply_with_radius="true" only_selected="true" hide_knots="false" /><inkscape:path-effect effect="spiro" id="path-effect849" is_visible="true" lpeversion="1" /><inkscape:path-effect effect="spiro" id="path-effect851" is_visible="true" lpeversion="1" />
  <svg:style type="text/css" id="style2">
   
    .fil0 {fill:#EF7F1A;fill-rule:nonzero}
   
  </svg:style>
 <inkscape:path-effect effect="spiro" id="path-effect1214" is_visible="true" lpeversion="1" /><inkscape:path-effect effect="spiro" id="path-effect1195" is_visible="true" lpeversion="1" /><inkscape:path-effect effect="spiro" id="path-effect992" is_visible="true" lpeversion="1" /><inkscape:path-effect effect="spiro" id="path-effect1060" is_visible="true" lpeversion="1" /><inkscape:path-effect effect="spiro" id="path-effect1047" is_visible="true" lpeversion="1" /><inkscape:path-effect effect="spiro" id="path-effect1085" is_visible="true" lpeversion="1" /><inkscape:path-effect effect="spiro" id="path-effect1286" is_visible="true" lpeversion="1" /></svg:defs>
 
<svg:g id="path847"><svg:path style="color:#000000;clip-rule:nonzero;fill:#1a5fb4;fill-rule:nonzero;stroke-linecap:round;stroke-linejoin:round;-inkscape-stroke:none;shape-rendering:auto" d="m 172.24414,168.81836 c -21.60683,-0.25548 -43.7592,1.44243 -66.24414,6.79687 -50.138418,11.93969 -94.765501,41.97317 -125.015625,83.44141 -15.06531,20.65221 -11.560355,44.62851 5.380859,61.4082 l 72.816407,72.12305 c 7.85075,7.7759 22.005814,14.22793 36.128906,10.98047 14.123093,-3.24746 23.211643,-14.10013 27.337893,-23.80664 8.94788,-21.04883 24.01117,-39.84616 42.57617,-52.99805 23.19279,-16.43033 52.96218,-24.65821 81.30078,-22.4707 14.79551,1.14209 29.51182,5.20907 43.12891,11.5957 -34.82582,62.00415 -71.58382,122.92401 -110.23633,182.61719 -60.2356,93.0251 -125.033001,183.09872 -194.080079,269.78516 -2.806334,3.52326 -5.61513,7.53794 -7.595703,14.05468 -1.980574,6.51675 -2.695764,17.55147 3.289062,27.3086 5.984826,9.75713 16.0017162,14.05404 22.6308594,15.28125 6.6291436,1.22721 11.4563086,0.61036 15.8613276,-0.23828 38.587169,-7.43398 77.877231,-11.29613 117.169923,-11.50977 72.89489,-0.39634 148.26114,12.12812 227.08789,15.11914 21.09124,0.80029 42.20851,0.87709 63.30469,0.23047 23.21133,-0.71145 40.05813,-16.26597 43.10351,-38.98633 L 486.125,670.66992 c 1.27763,-9.53185 0.0768,-26.52673 -15.7832,-36.43555 -15.85996,-9.90881 -31.09958,-3.76919 -39.13868,1.30469 -31.90049,20.13403 -67.17582,35.05832 -103.83203,43.89453 -32.6339,7.86662 -66.51266,10.73614 -100.11523,8.91797 34.24409,-54.88348 68.20729,-109.9417 101.55078,-165.37695 56.95512,-94.69079 112.59031,-190.1758 166.88281,-286.41797 5.5729,-9.87885 9.69516,-26.68404 -0.17578,-41.50781 -9.87094,-14.82377 -26.62251,-17.47267 -37.82617,-16.31055 -60.7526,6.30168 -122.18599,6.22646 -182.91797,-0.23437 -32.01463,-3.40581 -66.51401,-9.25975 -102.52539,-9.68555 z m -0.60937,60.4043 c 30.19829,0.54148 62.68804,5.31776 96.7871,8.94531 21.18136,2.25333 42.44063,3.70184 63.72266,4.50195 a 30.003,30.003 0 0 0 -7.08398,8.58789 c -2.13621,4.00464 -4.38289,7.94928 -6.53516,11.94531 -20.98074,-10.37249 -43.83273,-16.91454 -67.38281,-18.73242 -42.69311,-3.29556 -85.66079,8.58111 -120.60156,33.33399 -19.77528,14.00928 -36.437304,31.87877 -49.257817,52.22461 L 36.484375,285.65625 c 21.486313,-25.28483 51.374413,-44.04166 83.416015,-51.67188 16.32196,-3.88682 33.6154,-5.0866 51.73438,-4.76171 z m 252.14257,12.41015 C 375.987,325.68734 327.228,409.19164 277.39062,492.04883 c -37.65541,62.60405 -76.06984,124.74705 -114.8789,186.64258 -1.96339,-0.48774 -3.95638,-0.86009 -5.91016,-1.38282 a 30.003,30.003 0 0 0 -37.56836,32.30274 l 4.80078,43.07617 a 30.003,30.003 0 0 0 0.31836,0.85156 c -17.92694,0.41239 -35.836569,1.37448 -53.675778,3.16602 C 126.5407,683.65927 179.73272,608.40985 229.78125,531.11719 268.84886,470.78296 306.00221,409.21078 341.22852,346.55664 a 30.003,30.003 0 0 0 32.79492,-24.98828 l 7.22265,-52.07031 a 30.003,30.003 0 0 0 -10.24804,-26.14649 c 17.60529,-0.069 35.20517,-0.65753 52.77929,-1.71875 z m -3.43945,468.21289 -7.89453,58.89258 c -15.46393,0.2445 -30.9324,0.19773 -46.38672,-0.38867 -58.323,-2.21302 -118.26567,-10.59797 -180.24219,-13.82422 1.93138,-3.05064 3.82141,-6.12729 5.75,-9.17969 49.85334,6.72289 100.87662,4.22551 149.86719,-7.58398 27.19505,-6.55554 53.65878,-15.94601 78.90625,-27.91602 z" id="path22119" /></svg:g></svg:svg>
